X: 6967
T: Chi Vuol Esser Lieto Sia
R: slip jig
M: 9/8
K: Gmajor
|:B3 G2A BAG|B2d d2B A2G|F2A D2E FED|F2A D2E FGA|
B3 G2A BAG|B2d d2B A2G|FGA D2E F2G|A2G G2F G2A:|
B2d g2a bag|B2d g2a bag|f2e d2e fed|cBA A2B c2A|
B2d g2a bag|b2g d2g bag|f2e d2e fed|cBA F2A G2A|
B2d g2a bag|B2d g2a bag|f2e d2e fed|cBA A2B c2A|
B2d g2a bag|c2e a2b c'ba|b2g fed c2A|BAG F2A G3||

